src/assets/icons/paperwork.svg

<svg width="24" height="24" viewBox="0 0 24 24" fill="none" xmlns="http://www.w3.org/2000/svg">
<!-- Back document -->
<path d="M15.75 7.75H14.75C13.6454 7.75 12.75 8.64543 12.75 9.75V18.75C12.75 19.8546 11.8546 20.75 10.75 20.75H7.75C6.64543 20.75 5.75 19.8546 5.75 18.75V17.75" stroke="#314158" stroke-width="1.5"/>
<!-- Front document -->
<path d="M18.25 18.75V9.75C18.25 8.64543 17.3546 7.75 16.25 7.75H10.565C9.75 7.75 7.25 10.75 7.25 11.5957V18.75C7.25 19.8546 8.14543 20.75 9.25 20.75H16.25C17.3546 20.75 18.25 19.8546 18.25 18.75Z" stroke="#314158" stroke-width="1.5"/>
<!-- Fold corner -->
<path d="M10.5 7.75V10.75C10.5 11.3023 10.0523 11.75 9.5 11.75H6.5" stroke="#314158" stroke-width="1.5"/>
</svg>

<svg fill="none" viewBox="0 0 24 24"><path stroke="currentColor" stroke-width="1.5" d="M15.75 7.75h-1a2 2 0 0 0-2 2v9a2 2 0 0 1-2 2h-3a2 2 0 0 1-2-2v-1"/><path stroke="currentColor" stroke-width="1.5" d="M18.25 18.75v-9a2 2 0 0 0-2-2h-5.685c-.815 0-3.315 3-3.315 3.846v7.154a2 2 0 0 0 2 2h7a2 2 0 0 0 2-2Z"/><path stroke="currentColor" stroke-width="1.5" d="M10.5 7.75v3a1 1 0 0 1-1 1h-3"/></svg>
